outputs/icons/general/recall_round.svg

<svg xmlns="http://www.w3.org/2000/svg" width="1200" height="1200" fill="none"><path fill="#000" d="M1000 350c-27.615 0-50 22.386-50 50v150H291.5l143.823-144.226c19.436-19.489 19.414-51.037-.049-70.5-19.481-19.481-51.067-19.481-70.548 0L108.839 591.16c-4.882 4.885-4.882 12.795 0 17.68l255.887 255.885c19.481 19.48 51.067 19.48 70.548 0 19.463-19.46 19.485-51.01.049-70.5L291.5 650H1000c27.615 0 50-22.385 50-50V400c0-27.614-22.385-50-50-50"/></svg>

<svg width="1200" height="1200" viewBox="0 0 1200 1200" fill="none" xmlns="http://www.w3.org/2000/svg"><path d="M1000 350C972.385 350 950 372.386 950 400V550H291.5L435.323 405.774C454.759 386.285 454.737 354.737 435.274 335.274C415.793 315.793 384.207 315.793 364.726 335.274L108.839 591.16C103.957 596.045 103.957 603.955 108.839 608.84L364.726 864.725C384.207 884.205 415.793 884.205 435.274 864.725C454.737 845.265 454.759 813.715 435.323 794.225L291.5 650H1000C1027.615 650 1050 627.615 1050 600V400C1050 372.386 1027.615 350 1000 350Z" fill="#1D1E23"/></svg>
